X:27
T:Kerry
Z: id:dc-polka-22
M:2/4
L:1/8
K:E Dorian
B2 B>A|FA DA|B2 B>A|B/c/d ed|!
B2 B>A|FA D>E|FD AF|E2 E2:|!
Be e>f|ed BA|Be e>f|ed Bc|!
de dB|AF DE/F/|AF dB|A2 A2:|!

